build/img/logo-mobile.svg

<svg width="67" height="16" viewBox="0 0 67 16" fill="white" xmlns="http://www.w3.org/2000/svg">
<path d="M0.52 4.36C0.52 3.22667 0.793333 2.36 1.34 1.76C1.88667 1.14667 2.69333 0.84 3.76 0.84C4.82667 0.84 5.63333 1.14667 6.18 1.76C6.72667 2.36 7 3.22667 7 4.36V4.8H4.92V4.22C4.92 3.3 4.55333 2.84 3.82 2.84C3.08667 2.84 2.72 3.3 2.72 4.22C2.72 4.74 2.86667 5.23333 3.16 5.7C3.45333 6.15333 3.80667 6.56667 4.22 6.94C4.64667 7.31333 5.07333 7.70667 5.5 8.12C5.92667 8.52 6.28667 9.02667 6.58 9.64C6.87333 10.24 7.02 10.9067 7.02 11.64C7.02 12.7733 6.74 13.6467 6.18 14.26C5.62 14.86 4.80667 15.16 3.74 15.16C2.67333 15.16 1.86 14.86 1.3 14.26C0.74 13.6467 0.46 12.7733 0.46 11.64V10.78H2.54V11.78C2.54 12.6867 2.92 13.14 3.68 13.14C4.44 13.14 4.82 12.6867 4.82 11.78C4.82 11.26 4.67333 10.7733 4.38 10.32C4.08667 9.85333 3.72667 9.43333 3.3 9.06C2.88667 8.68667 2.46667 8.3 2.04 7.9C1.61333 7.48667 1.25333 6.98 0.96 6.38C0.666667 5.76667 0.52 5.09333 0.52 4.36ZM8.58047 0.999999H10.7805V11.8C10.7805 12.7067 11.1605 13.16 11.9205 13.16C12.6805 13.16 13.0605 12.7067 13.0605 11.8V0.999999H15.1405V11.66C15.1405 12.7933 14.8605 13.6667 14.3005 14.28C13.7405 14.88 12.9271 15.18 11.8605 15.18C10.7938 15.18 9.98047 14.88 9.42047 14.28C8.86047 13.6667 8.58047 12.7933 8.58047 11.66V0.999999ZM20.2892 0.999999C22.4759 0.999999 23.5692 2.15333 23.5692 4.46V6.28C23.5692 8.58667 22.4759 9.74 20.2892 9.74H19.2492V15H17.0492V0.999999H20.2892ZM20.2892 3H19.2492V7.74H20.2892C20.6492 7.74 20.9159 7.64 21.0892 7.44C21.2759 7.24 21.3692 6.9 21.3692 6.42V4.32C21.3692 3.84 21.2759 3.5 21.0892 3.3C20.9159 3.1 20.6492 3 20.2892 3ZM27.1883 3V6.9H30.2083V8.9H27.1883V13H30.9883V15H24.9883V0.999999H30.9883V3H27.1883ZM39.5916 15H37.3516C37.2182 14.6 37.1516 14.0267 37.1516 13.28V11.08C37.1516 10.44 37.0382 9.98667 36.8116 9.72C36.5849 9.44 36.2182 9.3 35.7116 9.3H34.9516V15H32.7516V0.999999H36.0716C37.2049 0.999999 38.0316 1.26667 38.5516 1.8C39.0716 2.32 39.3316 3.12667 39.3316 4.22V5.32C39.3316 6.76 38.8516 7.70667 37.8916 8.16C38.8649 8.57333 39.3516 9.56667 39.3516 11.14V13.3C39.3516 14.06 39.4316 14.6267 39.5916 15ZM36.0116 3H34.9516V7.3H35.8116C36.2516 7.3 36.5782 7.18667 36.7916 6.96C37.0182 6.73333 37.1316 6.35333 37.1316 5.82V4.44C37.1316 3.48 36.7582 3 36.0116 3ZM44.4984 9.2V7.2H47.5784V11.64C47.5784 12.7733 47.2984 13.6467 46.7384 14.26C46.1784 14.86 45.3651 15.16 44.2984 15.16C43.2318 15.16 42.4184 14.86 41.8584 14.26C41.2984 13.6467 41.0184 12.7733 41.0184 11.64V4.36C41.0184 3.22667 41.2984 2.36 41.8584 1.76C42.4184 1.14667 43.2318 0.84 44.2984 0.84C45.3651 0.84 46.1784 1.14667 46.7384 1.76C47.2984 2.36 47.5784 3.22667 47.5784 4.36V5.72H45.4984V4.22C45.4984 3.3 45.1184 2.84 44.3584 2.84C43.5984 2.84 43.2184 3.3 43.2184 4.22V11.78C43.2184 12.6867 43.5984 13.14 44.3584 13.14C45.1184 13.14 45.4984 12.6867 45.4984 11.78V9.2H44.4984ZM51.1584 15V10.36L48.3784 0.999999H50.6784L52.3584 7.38L54.0384 0.999999H56.1384L53.3584 10.36V15H51.1584ZM60.4681 0.999999L62.0881 10.94L63.5881 0.999999H66.6481V15H64.5681V4.96L63.0481 15H60.9681L59.3281 5.1V15H57.4081V0.999999H60.4681Z" fill="white"/>
</svg>

<svg width="67" height="16" fill="#fff" xmlns="http://www.w3.org/2000/svg"><path d="M.52 4.36c0-1.133.273-2 .82-2.6.547-.613 1.353-.92 2.42-.92s1.873.307 2.42.92c.547.6.82 1.467.82 2.6v.44H4.92v-.58c0-.92-.367-1.38-1.1-1.38-.733 0-1.1.46-1.1 1.38 0 .52.147 1.013.44 1.48.293.453.647.867 1.06 1.24.427.373.853.767 1.28 1.18.427.4.787.907 1.08 1.52.293.6.44 1.267.44 2 0 1.133-.28 2.007-.84 2.62-.56.6-1.373.9-2.44.9s-1.88-.3-2.44-.9c-.56-.613-.84-1.487-.84-2.62v-.86h2.08v1c0 .907.38 1.36 1.14 1.36.76 0 1.14-.453 1.14-1.36a2.64 2.64 0 00-.44-1.46A5.697 5.697 0 003.3 9.06c-.413-.373-.833-.76-1.26-1.16A5.381 5.381 0 01.96 6.38a4.62 4.62 0 01-.44-2.02zM8.58 1h2.2v10.8c0 .907.38 1.36 1.14 1.36.76 0 1.14-.453 1.14-1.36V1h2.08v10.66c0 1.133-.28 2.007-.84 2.62-.56.6-1.373.9-2.44.9-1.066 0-1.88-.3-2.44-.9-.56-.613-.84-1.487-.84-2.62V1zm11.71 0c2.186 0 3.28 1.153 3.28 3.46v1.82c0 2.307-1.094 3.46-3.28 3.46h-1.04V15h-2.2V1h3.24zm0 2h-1.04v4.74h1.04c.36 0 .626-.1.8-.3.186-.2.28-.54.28-1.02v-2.1c0-.48-.094-.82-.28-1.02-.174-.2-.44-.3-.8-.3zm6.898 0v3.9h3.02v2h-3.02V13h3.8v2h-6V1h6v2h-3.8zm12.404 12h-2.24c-.134-.4-.2-.973-.2-1.72v-2.2c0-.64-.114-1.093-.34-1.36-.227-.28-.594-.42-1.1-.42h-.76V15h-2.2V1h3.32c1.133 0 1.96.267 2.48.8.52.52.78 1.327.78 2.42v1.1c0 1.44-.48 2.387-1.44 2.84.973.413 1.46 1.407 1.46 2.98v2.16c0 .76.08 1.327.24 1.7zm-3.58-12h-1.06v4.3h.86c.44 0 .766-.113.98-.34.226-.227.34-.607.34-1.14V4.44c0-.96-.374-1.44-1.12-1.44zm8.486 6.2v-2h3.08v4.44c0 1.133-.28 2.007-.84 2.62-.56.6-1.373.9-2.44.9-1.066 0-1.88-.3-2.44-.9-.56-.613-.84-1.487-.84-2.62V4.36c0-1.133.28-2 .84-2.6.56-.613 1.374-.92 2.44-.92 1.067 0 1.88.307 2.44.92.56.6.84 1.467.84 2.6v1.36h-2.08v-1.5c0-.92-.38-1.38-1.14-1.38-.76 0-1.14.46-1.14 1.38v7.56c0 .907.38 1.36 1.14 1.36.76 0 1.14-.453 1.14-1.36V9.2h-1zm6.66 5.8v-4.64L48.378 1h2.3l1.68 6.38L54.038 1h2.1l-2.78 9.36V15h-2.2zm9.31-14l1.62 9.94 1.5-9.94h3.06v14h-2.08V4.96L63.048 15h-2.08l-1.64-9.9V15h-1.92V1h3.06z"/></svg>
